X: 41047
T: Trip To Manila, The
R: reel
M: 4/4
K: Cmajor
c2ed cAGE|CEE2 CDEG|c2de cega|gece d2ed|
cedc ABcA|GEE2 GAce|d2cd Afdc|BGAB cdef|
gccc acc,a|gcec dcAc|gccc Accc|Gege d2ef|
gccc acc,a|g2ec dcAB|c2Ac Gcea|gede c4|

